assets/svg/charge-group-preset-diamond.svg

<?xml version="1.0" encoding="UTF-8" standalone="no"?>
<svg xmlns="http://www.w3.org/2000/svg" preserveAspectRatio="xMidYMin slice" viewBox="-10 -10 120 140"><defs><mask id="a"><path fill="#fff" fill-rule="evenodd" d="M0 0h100v120H0z" clip-rule="evenodd"/></mask></defs><g mask="url(#a)"><path fill="#f0f0f0" fill-rule="evenodd" d="M0 0h100v120H0z"/><path fill="#f6f6f6" d="M-1000-1000h2000v2000h-2000z"/><defs><mask id="b"><path fill="#fff" fill-rule="evenodd" d="M60.938 24.645c0-6.041-4.897-10.938-10.938-10.938-6.04 0-10.938 4.897-10.938 10.938 0 6.04 4.897 10.937 10.938 10.937 6.04 0 10.938-4.897 10.938-10.937z" clip-rule="evenodd"/></mask></defs><g mask="url(#b)"><path fill="#0c6793" d="M-1000-1000h2000v2000h-2000z"/></g><path fill="none" stroke="#333" stroke-linecap="round" stroke-linejoin="round" stroke-width=".5" d="M60.938 24.645c0-6.041-4.897-10.938-10.938-10.938-6.04 0-10.938 4.897-10.938 10.938 0 6.04 4.897 10.937 10.938 10.937 6.04 0 10.938-4.897 10.938-10.937z"/><defs><mask id="c"><path fill="#fff" fill-rule="evenodd" d="M78.615 42.322c0-6.04-4.897-10.937-10.937-10.937-6.04 0-10.938 4.897-10.938 10.937 0 6.04 4.897 10.938 10.938 10.938 6.04 0 10.937-4.897 10.937-10.938z" clip-rule="evenodd"/></mask></defs><g mask="url(#c)"><path fill="#0c6793" d="M-1000-1000h2000v2000h-2000z"/></g><path fill="none" stroke="#333" stroke-linecap="round" stroke-linejoin="round" stroke-width=".5" d="M78.615 42.322c0-6.04-4.897-10.937-10.937-10.937-6.04 0-10.938 4.897-10.938 10.937 0 6.04 4.897 10.938 10.938 10.938 6.04 0 10.937-4.897 10.937-10.938z"/><defs><mask id="d"><path fill="#fff" fill-rule="evenodd" d="M96.293 60c0-6.04-4.897-10.938-10.938-10.938-6.04 0-10.937 4.897-10.937 10.938 0 6.04 4.897 10.938 10.937 10.938 6.04 0 10.938-4.897 10.938-10.938z" clip-rule="evenodd"/></mask></defs><g mask="url(#d)"><path fill="#0c6793" d="M-1000-1000h2000v2000h-2000z"/></g><path fill="none" stroke="#333" stroke-linecap="round" stroke-linejoin="round" stroke-width=".5" d="M96.293 60c0-6.04-4.897-10.938-10.938-10.938-6.04 0-10.937 4.897-10.937 10.938 0 6.04 4.897 10.938 10.937 10.938 6.04 0 10.938-4.897 10.938-10.938z"/><defs><mask id="e"><path fill="#fff" fill-rule="evenodd" d="M43.26 42.322c0-6.04-4.897-10.937-10.938-10.937-6.04 0-10.937 4.897-10.937 10.937 0 6.04 4.897 10.938 10.937 10.938 6.04 0 10.938-4.897 10.938-10.938z" clip-rule="evenodd"/></mask></defs><g mask="url(#e)"><path fill="#0c6793" d="M-1000-1000h2000v2000h-2000z"/></g><path fill="none" stroke="#333" stroke-linecap="round" stroke-linejoin="round" stroke-width=".5" d="M43.26 42.322c0-6.04-4.897-10.937-10.938-10.937-6.04 0-10.937 4.897-10.937 10.937 0 6.04 4.897 10.938 10.937 10.938 6.04 0 10.938-4.897 10.938-10.938z"/><defs><mask id="f"><path fill="#fff" fill-rule="evenodd" d="M60.938 60c0-6.04-4.897-10.938-10.938-10.938-6.04 0-10.938 4.897-10.938 10.938 0 6.04 4.897 10.938 10.938 10.938 6.04 0 10.938-4.897 10.938-10.938z" clip-rule="evenodd"/></mask></defs><g mask="url(#f)"><path fill="#0c6793" d="M-1000-1000h2000v2000h-2000z"/></g><path fill="none" stroke="#333" stroke-linecap="round" stroke-linejoin="round" stroke-width=".5" d="M60.938 60c0-6.04-4.897-10.938-10.938-10.938-6.04 0-10.938 4.897-10.938 10.938 0 6.04 4.897 10.938 10.938 10.938 6.04 0 10.938-4.897 10.938-10.938z"/><defs><mask id="g"><path fill="#fff" fill-rule="evenodd" d="M78.615 77.678c0-6.04-4.897-10.938-10.937-10.938-6.04 0-10.938 4.897-10.938 10.938 0 6.04 4.897 10.937 10.938 10.937 6.04 0 10.937-4.897 10.937-10.937z" clip-rule="evenodd"/></mask></defs><g mask="url(#g)"><path fill="#0c6793" d="M-1000-1000h2000v2000h-2000z"/></g><path fill="none" stroke="#333" stroke-linecap="round" stroke-linejoin="round" stroke-width=".5" d="M78.615 77.678c0-6.04-4.897-10.938-10.937-10.938-6.04 0-10.938 4.897-10.938 10.938 0 6.04 4.897 10.937 10.938 10.937 6.04 0 10.937-4.897 10.937-10.937z"/><defs><mask id="h"><path fill="#fff" fill-rule="evenodd" d="M25.582 60c0-6.04-4.897-10.938-10.937-10.938C8.604 49.063 3.707 53.96 3.707 60c0 6.04 4.897 10.938 10.938 10.938 6.04 0 10.937-4.897 10.937-10.938z" clip-rule="evenodd"/></mask></defs><g mask="url(#h)"><path fill="#0c6793" d="M-1000-1000h2000v2000h-2000z"/></g><path fill="none" stroke="#333" stroke-linecap="round" stroke-linejoin="round" stroke-width=".5" d="M25.582 60c0-6.04-4.897-10.938-10.937-10.938C8.604 49.063 3.707 53.96 3.707 60c0 6.04 4.897 10.938 10.938 10.938 6.04 0 10.937-4.897 10.937-10.938z"/><defs><mask id="i"><path fill="#fff" fill-rule="evenodd" d="M43.26 77.678c0-6.04-4.897-10.938-10.938-10.938-6.04 0-10.937 4.897-10.937 10.938 0 6.04 4.897 10.937 10.937 10.937 6.04 0 10.938-4.897 10.938-10.937z" clip-rule="evenodd"/></mask></defs><g mask="url(#i)"><path fill="#0c6793" d="M-1000-1000h2000v2000h-2000z"/></g><path fill="none" stroke="#333" stroke-linecap="round" stroke-linejoin="round" stroke-width=".5" d="M43.26 77.678c0-6.04-4.897-10.938-10.938-10.938-6.04 0-10.937 4.897-10.937 10.938 0 6.04 4.897 10.937 10.937 10.937 6.04 0 10.938-4.897 10.938-10.937z"/><defs><mask id="j"><path fill="#fff" fill-rule="evenodd" d="M60.938 95.355c0-6.04-4.897-10.937-10.938-10.937-6.04 0-10.938 4.897-10.938 10.937 0 6.04 4.897 10.938 10.938 10.938 6.04 0 10.938-4.897 10.938-10.938z" clip-rule="evenodd"/></mask></defs><g mask="url(#j)"><path fill="#0c6793" d="M-1000-1000h2000v2000h-2000z"/></g><path fill="none" stroke="#333" stroke-linecap="round" stroke-linejoin="round" stroke-width=".5" d="M60.938 95.355c0-6.04-4.897-10.937-10.938-10.937-6.04 0-10.938 4.897-10.938 10.937 0 6.04 4.897 10.938 10.938 10.938 6.04 0 10.938-4.897 10.938-10.938z"/></g><path fill="none" stroke="#333" stroke-linecap="round" stroke-linejoin="round" stroke-width=".5" d="M0 0h100v120H0z"/></svg>

<?xml version="1.0" encoding="UTF-8" standalone="no"?>
<svg xmlns="http://www.w3.org/2000/svg" preserveAspectRatio="xMidYMin slice" viewBox="-10 -10 120 140"><defs><mask id="a"><path fill="#fff" fill-rule="evenodd" d="M0 0h100v120H0z" clip-rule="evenodd"/></mask></defs><g mask="url(#a)"><path fill="#f0f0f0" fill-rule="evenodd" d="M0 0h100v120H0z"/><path fill="#f6f6f6" d="M-1000-1000h2000v2000h-2000z"/><defs><mask id="b"><path fill="#fff" fill-rule="evenodd" d="M60.938 24.645c0-6.041-4.897-10.938-10.938-10.938-6.04 0-10.937 4.897-10.937 10.938 0 6.04 4.896 10.937 10.937 10.937s10.938-4.897 10.938-10.937" clip-rule="evenodd"/></mask></defs><g mask="url(#b)"><path fill="#0c6793" d="M-1000-1000h2000v2000h-2000z"/></g><path fill="none" stroke="#333" stroke-linecap="round" stroke-linejoin="round" stroke-width=".5" d="M60.938 24.645c0-6.041-4.897-10.938-10.938-10.938-6.04 0-10.937 4.897-10.937 10.938 0 6.04 4.896 10.937 10.937 10.937s10.938-4.897 10.938-10.937"/><defs><mask id="c"><path fill="#fff" fill-rule="evenodd" d="M78.615 42.322c0-6.04-4.897-10.937-10.937-10.937S56.74 36.282 56.74 42.322 61.637 53.26 67.678 53.26c6.04 0 10.937-4.897 10.937-10.938" clip-rule="evenodd"/></mask></defs><g mask="url(#c)"><path fill="#0c6793" d="M-1000-1000h2000v2000h-2000z"/></g><path fill="none" stroke="#333" stroke-linecap="round" stroke-linejoin="round" stroke-width=".5" d="M78.615 42.322c0-6.04-4.897-10.937-10.937-10.937S56.74 36.282 56.74 42.322 61.637 53.26 67.678 53.26c6.04 0 10.937-4.897 10.937-10.938"/><defs><mask id="d"><path fill="#fff" fill-rule="evenodd" d="M96.293 60c0-6.04-4.897-10.937-10.938-10.937-6.04 0-10.937 4.896-10.937 10.937s4.897 10.938 10.937 10.938S96.293 66.04 96.293 60" clip-rule="evenodd"/></mask></defs><g mask="url(#d)"><path fill="#0c6793" d="M-1000-1000h2000v2000h-2000z"/></g><path fill="none" stroke="#333" stroke-linecap="round" stroke-linejoin="round" stroke-width=".5" d="M96.293 60c0-6.04-4.897-10.937-10.938-10.937-6.04 0-10.937 4.896-10.937 10.937s4.897 10.938 10.937 10.938S96.293 66.04 96.293 60"/><defs><mask id="e"><path fill="#fff" fill-rule="evenodd" d="M43.26 42.322c0-6.04-4.897-10.937-10.938-10.937-6.04 0-10.937 4.897-10.937 10.937S26.282 53.26 32.322 53.26 43.26 48.363 43.26 42.322" clip-rule="evenodd"/></mask></defs><g mask="url(#e)"><path fill="#0c6793" d="M-1000-1000h2000v2000h-2000z"/></g><path fill="none" stroke="#333" stroke-linecap="round" stroke-linejoin="round" stroke-width=".5" d="M43.26 42.322c0-6.04-4.897-10.937-10.938-10.937-6.04 0-10.937 4.897-10.937 10.937S26.282 53.26 32.322 53.26 43.26 48.363 43.26 42.322"/><defs><mask id="f"><path fill="#fff" fill-rule="evenodd" d="M60.938 60c0-6.04-4.897-10.937-10.938-10.937-6.04 0-10.937 4.896-10.937 10.937S43.959 70.938 50 70.938 60.938 66.04 60.938 60" clip-rule="evenodd"/></mask></defs><g mask="url(#f)"><path fill="#0c6793" d="M-1000-1000h2000v2000h-2000z"/></g><path fill="none" stroke="#333" stroke-linecap="round" stroke-linejoin="round" stroke-width=".5" d="M60.938 60c0-6.04-4.897-10.937-10.938-10.937-6.04 0-10.937 4.896-10.937 10.937S43.959 70.938 50 70.938 60.938 66.04 60.938 60"/><defs><mask id="g"><path fill="#fff" fill-rule="evenodd" d="M78.615 77.678c0-6.04-4.897-10.938-10.937-10.938S56.74 71.637 56.74 77.678c0 6.04 4.897 10.937 10.938 10.937 6.04 0 10.937-4.897 10.937-10.937" clip-rule="evenodd"/></mask></defs><g mask="url(#g)"><path fill="#0c6793" d="M-1000-1000h2000v2000h-2000z"/></g><path fill="none" stroke="#333" stroke-linecap="round" stroke-linejoin="round" stroke-width=".5" d="M78.615 77.678c0-6.04-4.897-10.938-10.937-10.938S56.74 71.637 56.74 77.678c0 6.04 4.897 10.937 10.938 10.937 6.04 0 10.937-4.897 10.937-10.937"/><defs><mask id="h"><path fill="#fff" fill-rule="evenodd" d="M25.582 60c0-6.04-4.897-10.937-10.937-10.937-6.041 0-10.938 4.896-10.938 10.937s4.897 10.938 10.938 10.938c6.04 0 10.937-4.897 10.937-10.938" clip-rule="evenodd"/></mask></defs><g mask="url(#h)"><path fill="#0c6793" d="M-1000-1000h2000v2000h-2000z"/></g><path fill="none" stroke="#333" stroke-linecap="round" stroke-linejoin="round" stroke-width=".5" d="M25.582 60c0-6.04-4.897-10.937-10.937-10.937-6.041 0-10.938 4.896-10.938 10.937s4.897 10.938 10.938 10.938c6.04 0 10.937-4.897 10.937-10.938"/><defs><mask id="i"><path fill="#fff" fill-rule="evenodd" d="M43.26 77.678c0-6.04-4.897-10.938-10.938-10.938-6.04 0-10.937 4.897-10.937 10.938 0 6.04 4.897 10.937 10.937 10.937S43.26 83.718 43.26 77.678" clip-rule="evenodd"/></mask></defs><g mask="url(#i)"><path fill="#0c6793" d="M-1000-1000h2000v2000h-2000z"/></g><path fill="none" stroke="#333" stroke-linecap="round" stroke-linejoin="round" stroke-width=".5" d="M43.26 77.678c0-6.04-4.897-10.938-10.938-10.938-6.04 0-10.937 4.897-10.937 10.938 0 6.04 4.897 10.937 10.937 10.937S43.26 83.718 43.26 77.678"/><defs><mask id="j"><path fill="#fff" fill-rule="evenodd" d="M60.938 95.355c0-6.04-4.897-10.937-10.938-10.937-6.04 0-10.937 4.897-10.937 10.937S43.959 106.293 50 106.293s10.938-4.897 10.938-10.938" clip-rule="evenodd"/></mask></defs><g mask="url(#j)"><path fill="#0c6793" d="M-1000-1000h2000v2000h-2000z"/></g><path fill="none" stroke="#333" stroke-linecap="round" stroke-linejoin="round" stroke-width=".5" d="M60.938 95.355c0-6.04-4.897-10.937-10.938-10.937-6.04 0-10.937 4.897-10.937 10.937S43.959 106.293 50 106.293s10.938-4.897 10.938-10.938"/></g><path fill="none" stroke="#333" stroke-linecap="round" stroke-linejoin="round" stroke-width=".5" d="M0 0h100v120H0z"/></svg>
